assets/img/prio_urgent_red.svg

<svg width="20" height="15" viewBox="0 0 20 15" fill="none" xmlns="http://www.w3.org/2000/svg">
<g clip-path="url(#clip0_156_921)">
<path d="M18.9043 14.5096C18.6696 14.51 18.4411 14.4351 18.2522 14.2961L10.0001 8.21288L1.74809 14.2961C1.63224 14.3816 1.50066 14.4435 1.36086 14.4783C1.22106 14.513 1.07577 14.5199 0.933305 14.4986C0.790837 14.4772 0.653973 14.428 0.530528 14.3538C0.407083 14.2796 0.299474 14.1818 0.213845 14.0661C0.128216 13.9503 0.0662437 13.8188 0.0314671 13.6791C-0.00330956 13.5394 -0.0102098 13.3943 0.0111604 13.2519C0.0543195 12.9644 0.21001 12.7058 0.443982 12.533L9.34809 5.96249C9.53679 5.8229 9.76536 5.74756 10.0001 5.74756C10.2349 5.74756 10.4635 5.8229 10.6522 5.96249L19.5563 12.533C19.7422 12.6699 19.8801 12.862 19.9503 13.0819C20.0204 13.3018 20.0193 13.5382 19.9469 13.7573C19.8746 13.9765 19.7349 14.1673 19.5476 14.3024C19.3604 14.4375 19.1352 14.51 18.9043 14.5096Z" fill="#FF3D00"/>
<path d="M18.9043 8.76057C18.6696 8.76097 18.4411 8.68612 18.2522 8.54702L10.0002 2.46386L1.7481 8.54702C1.51412 8.71983 1.22104 8.79269 0.93331 8.74956C0.645583 8.70643 0.386785 8.55086 0.213849 8.31706C0.0409137 8.08326 -0.0319941 7.79039 0.011165 7.50288C0.054324 7.21536 0.210015 6.95676 0.443986 6.78395L9.3481 0.213471C9.5368 0.0738799 9.76537 -0.00146484 10.0002 -0.00146484C10.2349 -0.00146484 10.4635 0.0738799 10.6522 0.213471L19.5563 6.78395C19.7422 6.92087 19.8801 7.11298 19.9503 7.33286C20.0204 7.55274 20.0193 7.78914 19.947 8.00832C19.8746 8.22751 19.7349 8.41826 19.5476 8.55335C19.3604 8.68844 19.1352 8.76096 18.9043 8.76057Z" fill="#FF3D00"/>
</g>
<defs>
<clipPath id="clip0_156_921">
<rect width="20" height="14.5098" fill="white"/>
</clipPath>
</defs>
</svg>

<?xml version="1.0" encoding="UTF-8"?>
<svg id="Ebene_1" xmlns="http://www.w3.org/2000/svg" xmlns:xlink="http://www.w3.org/1999/xlink" version="1.1" viewBox="0 0 20 15">
  <!-- Generator: Adobe Illustrator 30.1.0, SVG Export Plug-In . SVG Version: 2.1.1 Build 136)  -->
  <defs>
    <style>
      .st0 {
        fill: none;
      }

      .st1 {
        fill: #f175fa;
      }

      .st2 {
        clip-path: url(#clippath);
      }
    </style>
    <clipPath id="clippath">
      <rect class="st0" width="20" height="14.51"/>
    </clipPath>
  </defs>
  <g class="st2">
    <g>
      <path class="st1" d="M18.9,14.51c-.23,0-.46-.07-.65-.21l-8.25-6.08L1.75,14.3c-.12.09-.25.15-.39.18-.14.03-.29.04-.43.02-.14-.02-.28-.07-.4-.14-.12-.07-.23-.17-.32-.29-.09-.12-.15-.25-.18-.39-.03-.14-.04-.28-.02-.43.04-.29.2-.55.43-.72l8.9-6.57c.19-.14.42-.21.65-.21s.46.08.65.21l8.9,6.57c.19.14.32.33.39.55.07.22.07.46,0,.68-.07.22-.21.41-.4.55-.19.14-.41.21-.64.21Z"/>
      <path class="st1" d="M18.9,8.76c-.23,0-.46-.07-.65-.21L10,2.46,1.75,8.55c-.23.17-.53.25-.81.2-.29-.04-.55-.2-.72-.43-.17-.23-.25-.53-.2-.81.04-.29.2-.55.43-.72L9.35.21c.19-.14.42-.21.65-.21s.46.08.65.21l8.9,6.57c.19.14.32.33.39.55.07.22.07.46,0,.68-.07.22-.21.41-.4.55-.19.14-.41.21-.64.21Z"/>
    </g>
  </g>
</svg>
